images/icons/icon-quote.svg

<svg xmlns="http://www.w3.org/2000/svg" width="24" height="24" viewBox="0 0 24 24"><path d="M21.95 8.721c-.017-.109-.025-.168-.025-.168l-.026.006C21.465 6.526 19.662 5 17.5 5 15.015 5 13 7.015 13 9.5s2.015 4.5 4.5 4.5c.223 0 .437-.034.65-.065-.069.232-.14.468-.254.68-.114.308-.292.575-.469.844-.148.291-.409.488-.601.737-.201.242-.475.403-.692.604-.213.21-.492.315-.714.463-.232.133-.434.28-.65.35-.208.086-.39.16-.539.222-.302.125-.474.197-.474.197l.484 1.939c0 0 .218-.052.597-.144.191-.048.424-.104.689-.171.271-.05.56-.187.882-.312.317-.143.686-.238 1.028-.467.344-.218.741-.4 1.091-.692.339-.301.748-.562 1.05-.944.33-.358.656-.734.909-1.162.293-.408.492-.856.702-1.299.19-.443.343-.896.468-1.336.237-.882.343-1.72.384-2.437.034-.718.014-1.315-.028-1.747C21.998 9.056 21.971 8.857 21.95 8.721zM10.95 8.721c-.017-.109-.025-.168-.025-.168l-.026.006C10.465 6.526 8.662 5 6.5 5 4.015 5 2 7.015 2 9.5S4.015 14 6.5 14c.223 0 .437-.034.65-.065-.069.232-.14.468-.254.68-.114.308-.292.575-.469.844-.148.291-.409.488-.601.737-.201.242-.475.403-.692.604-.213.21-.492.315-.714.463-.232.133-.434.28-.65.35-.208.086-.39.16-.539.222C2.93 17.958 2.758 18.03 2.758 18.03l.484 1.939c0 0 .218-.052.597-.144.191-.048.424-.104.689-.171.271-.05.56-.187.882-.312.317-.143.686-.238 1.028-.467.344-.218.741-.4 1.091-.692.339-.301.748-.562 1.05-.944.33-.358.656-.734.909-1.162.293-.408.492-.856.702-1.299.19-.443.343-.896.468-1.336.237-.882.343-1.72.384-2.437.034-.718.014-1.315-.028-1.747C10.998 9.056 10.971 8.857 10.95 8.721z"/></svg>

<svg width="24" height="24" viewBox="0 0 24 24" fill="none" xmlns="http://www.w3.org/2000/svg">
<path d="M21.95 8.721C21.933 8.612 21.925 8.553 21.925 8.553L21.899 8.559C21.465 6.526 19.662 5 17.5 5C15.015 5 13 7.015 13 9.5C13 11.985 15.015 14 17.5 14C17.723 14 17.937 13.966 18.15 13.935C18.081 14.167 18.01 14.403 17.896 14.615C17.782 14.923 17.604 15.19 17.427 15.459C17.279 15.75 17.018 15.947 16.826 16.196C16.625 16.438 16.351 16.599 16.134 16.8C15.921 17.01 15.642 17.115 15.42 17.263C15.188 17.396 14.986 17.543 14.77 17.613C14.562 17.699 14.38 17.773 14.231 17.835C13.929 17.96 13.757 18.032 13.757 18.032L14.241 19.971C14.241 19.971 14.459 19.919 14.838 19.827C15.029 19.779 15.262 19.723 15.527 19.656C15.798 19.606 16.087 19.469 16.409 19.344C16.726 19.201 17.095 19.106 17.437 18.877C17.781 18.659 18.178 18.477 18.528 18.185C18.867 17.884 19.276 17.623 19.578 17.241C19.908 16.883 20.234 16.507 20.487 16.079C20.78 15.671 20.979 15.223 21.189 14.78C21.379 14.337 21.532 13.884 21.657 13.444C21.894 12.562 22 11.724 22.041 11.007C22.075 10.289 22.055 9.692 22.013 9.26C21.998 9.056 21.971 8.857 21.95 8.721ZM10.95 8.721C10.933 8.612 10.925 8.553 10.925 8.553L10.899 8.559C10.465 6.526 8.662 5 6.5 5C4.015 5 2 7.015 2 9.5C2 11.985 4.015 14 6.5 14C6.723 14 6.937 13.966 7.15 13.935C7.081 14.167 7.01 14.403 6.896 14.615C6.782 14.923 6.604 15.19 6.427 15.459C6.279 15.75 6.018 15.947 5.826 16.196C5.625 16.438 5.351 16.599 5.134 16.8C4.921 17.01 4.642 17.115 4.42 17.263C4.188 17.396 3.986 17.543 3.77 17.613C3.562 17.699 3.38 17.773 3.231 17.835C2.93 17.958 2.758 18.03 2.758 18.03L3.242 19.969C3.242 19.969 3.46 19.917 3.839 19.825C4.03 19.777 4.263 19.721 4.528 19.654C4.799 19.604 5.088 19.467 5.41 19.342C5.727 19.199 6.096 19.104 6.438 18.875C6.782 18.657 7.179 18.475 7.529 18.183C7.868 17.882 8.277 17.621 8.579 17.239C8.909 16.881 9.235 16.505 9.488 16.077C9.781 15.669 9.98 15.221 10.19 14.778C10.38 14.335 10.533 13.882 10.658 13.442C10.895 12.56 11.001 11.722 11.042 11.005C11.076 10.287 11.056 9.69 11.014 9.258C10.998 9.056 10.971 8.857 10.95 8.721Z" fill="#262826"/>
</svg>
